X:1
T:Mamie a eu de dieu
T:Mamie a eu de dieu
T:Cornelius Canis
C:Cornelius Canis
%%score [ 1 [ 2 3 ] 4 ]
L:1/8
Q:1/4=80
M:2/2
K:C
V:1 treble nm="Superius" snm="S"
V:2 treble-8 nm="Tenor 1" snm="T 1"
V:3 treble-8 nm="Tenor 2" snm="T 2"
V:4 bass nm="Bassus" snm="B"
V:1
 d2 dc BABd | c2 B2 A3 G | F2 D2 G2 B2 | A4 G4- | G4 z4 | z8 | z2 d2 dcBA | B2 d2 c2 B2 | %8
w: Ma mi- e'a eu de dieu le|don que beaul- té|el- le ta- *|* che,|_||ma mi- e'a eu de|dieu le don que|
 BAGF GG A2 | F2 E2 G2 A2 | B2 A3 G G2- |"^#" G2 F2 G2 z2 | G2 GG A2 c2 | B2 A2 G4 | z4 z2 G2 | %15
w: beaul- té el- le ta- che, que|beaul- té el- le|ta- * * *|* * che,|les deux ieulx blanc com-|m'ung char- bon,|les|
 G2 G2 A2 c2 | B2 A2 G4 | z2 G2 GFEF | GA B2 c3 B/A/ | G2 A2 F2 E2 | A3 G F4 | E4 z2 G2 | %22
w: deux ieulx com- m'ung|char- * bon,|les te- * * *|* * tins com- * *|m'u- ne va- *||che, au|
 A2 B2 cBAc | B2 A2 G2 A2- | A2 G2 A4 | z4 G2 AB | cBAc B2 A2 | G2 c4 B2 | c4 z2 c2 | cBAG F3 E | %30
w: jeu d'a- mours _ _ _|_ el- le n'est|_ la- che,|au jeu _|d'a- * * * mours el-|le n'est la-|che, à|tous les coups je suis vain-|
 D2 G2 EFGE |: FG E2 D2 z2 | z8 | z2 B2 A2 G2 | F3 E F2 G2 | E4 z4 | z2 G2 A2 B2 | G2 A2 F2 G2 | %38
w: cu, je veulx que tout le|mon- de sai- che||que je n'ay|peur d'es- tre coc-|qu,|d'es- tre coc-|qu, d'es- tre coc-|
 EAFG ED G2- | G2 F2 G4 |1 z2 G2 EFGE :|2"^#" G2 F2 G4- || G8 |] %43
w: qu, d'es- tre coc- qu, d'es- tre|_ coc- qu,|je veulx que tout le|(tre) coc- qu.|_|
V:2
 z2 g2 gfed | e2 g2 f3 e | dcBA G2 g2- |"^#" g2 f2 g4 | z8 | z8 | z4 g2 gf | e2 d2 ef g2 | %8
w: Ma mi- e'a eu de|dieu le don que|beaul- té el- le ta- *|* * che,|||ma mi' e'a|eu de dieu le don|
 d2 e4 c2 | d2 e4 c2 | g2 f2 d2 e2 | d4 z2 d2 | ddeg f2 e2 | d4 z4 | z4 d2 dd | e2 g2 f2 e2- | %16
w: que beaul- té|el- le ta-||che, les|deux ieulx blanc com- m'ung char-|bon,|les deux ieulx|blanc com- m'ung char-|
 ec f2 d4 | z4 z2 c2 | c2 B2 ABcd | e2 A3 d2 c | d2 f2 fe d2- | d2 c2 d4 | z4 z2 c2 | de f2 z4 | %24
w: * * * bon,|les|te- tins com- * * *|m'u- ne va- *|che, com- m'u- ne va-|* * che,|au|jeu d'a- mours,|
 z4 c2 de | fedf e2 d2 | c2 ef ggcd | e2 c2 g2 gf | edcB A4- | A4 z2 d2 | BcdB cd e2 |: %31
w: au jeu d'a-|mours _ _ _ el- le|n'est la _ che, à tous les|coups le suis vain- *|* * * * cu,|_ je|veulx que tout le mon- de sai-|
 c2 z2 d2 BB | cA Bc A2 G2 | d4 f2 e2 | d3 c d2 e2 | c4 z4 | z2 e2 f2 g2 | e2 f2 f2 e2 | %38
w: che, que tout le|mon- * de _ sai- che|que je n'ay|peur d'es- tre coc-|qu,|d'es- tre coc-|qu, d'es- tre coc|
 cAdB e2 c2 | d4 z2 d2 |1 BcdB cd e2 :|2 d8- || d8 |] %43
w: qu, d'es- tre coc- qu, coc-|qu, je|veulx que tout le mon- de sai-|qu.|_|
V:3
 z8 | z8 | z8 | z2 d2 dcBA | BdcB A2 G2 | F2 D2 G2 B2 | A4 G4 | z8 | z2 c2 cBAG | A2 c2 B2 A2 | %10
w: |||Ma mi- e'a eu de|dieu le don que beaul- té|el- le ta- *|* che,||ma mi- e'a eu de|dieu le don que|
 G2 A2 B2 c2 | A4 G4 | z8 | z4 G2 GG | A2 c2 B3 A | G2 c4 BA | B2 c4 B2 | c8 | z4 F2 F2 | %19
w: beaul- té ta- *|* che,||les deux ieulx|blanc com- m'ung _|_ char- * *||bon,|les te-|
 E2 DE FG A2 | D4 z4 | z2 A2 B3 c | d4 z4 | G2 AB cBAc | B4 AG c2- | c2 B2 c2 z2 | z2 c2 de f2 | %27
w: tins ronds com- m'u- ne va-|che,|au jeu d'a-|mours,|au jeu d'a- mours _ _ _|_ el- le n'est|_ la- che,|au jeu d'a- mours|
 ed fe d4 | c2 z2 c2 cB | AG F4 D2 | G4 z2 c2 |: ABcA Bc d2 | G2 z2 z4 | z2 G2 A2 B2 | A4 z4 | %35
w: el- le n'est _ la-|che, à tous les|coups je suis vain-|cu, je|veulx que tout le mon- de sai-|che|que je n'ay|peur,|
 z2 G2 A2 B2 | c4 z4 | z2 c2 d2 B2 | AABG cBAG | A4 G4- |1 G4 z2 c2 :|2 A4 G4- || G8 |] %43
w: que- je n'ay|peur|d'es- tre coc-|qu, d'es- tre coc- qu, d'es- tre coc-|* qu,|_ je|(coc)- qu.|_|
V:4
 z8 | z8 | z8 | z4 G,2 G,F, | E,D,E,G, F,2 E,2 | D,C,B,,A,, G,,2 G,2- |"^#" G,2 F,2 G,4 | %7
w: |||Ma mi- e'a|eu de dieu le don que|beaul- té el- le ta- *|* * che,|
 z4 z2 G,2 | G,F,E,D, E,G,F,E, | D,2 C,2 E,2 F,2 | E,2 F,2 G,2 C,2 | D,4 G,4- | G,4 z4 | %13
w: ma|mi- e'a eu de dieu le don que|beaul- té el- le|ta- * * *|* che,|_|
 D,2 D,D, E,2 G,2 | F,2 E,2 D,2 G,2 | G,2 E,2 F,2 A,2 | G,2 F,2 G,4 | C,8 | z8 | z8 | %20
w: les deux ieulx blan com-|m'ung char- bon, les|deux ieulx blanc com-|m'ung char- *|bon,|||
 F,2 F,E, D,E,F,G, | A,4 D,2 G,2 | F,2 G,2 C,2 z2 | z4 z2 C,2 | D,2 E,2 F,E,D,C, | D,4 C,2 z2 | %26
w: les te- tins ronds _ _ _|_ com- m'u-|ne va- che,|au|jeu d'a- mours el- le n'est|la- che,|
 z4 G,2 A,B, | CB,A,C G,4 | C,2 C2 CB,A,G, | F,3 E, D,4 | z8 |: z4 z2 G,2 | E,F,G,E, F,G, E,2 | %33
w: au jeu d'a-|mours el- le n'est la-|che, à tous les coups je|suis vain- cu,||je|veulx que tout le mon- de sai-|
 D,2 G,2 F,2 G,2 | D,4 z4 | z2 C,2 F,2 G,2 | C,4 z4 | z2 F,2 D,2 E,2 | A,,F,D,E, C,2 E,2 | %39
w: che que je n'ay|peur,|que je n'ay|peur|d'es- tre coc|qu, d'es- tre coc- qu, coc-|
 D,4 G,4 |1 z8 :|2 D,4 G,4- || G,8 |] %43
w: * qu,||(coc)- qu.|_|

